!!!COM: Charles Gounod
!!!CNT: Francais
!!!TXO: Francais
!!!OTL: De/esse ou Femme
!!!ODT: 1865/
!!!LYR: Jules Barbier
!!!LYR: Michel Carre/
!!!ENC: Jacob Pegg
!!!YOR: Romantic French Song 1830-1870 -David Tunley, ed.,
!!!YOR: New York: Garland Publishing, Inc., 1995, Vol. 5
!!NB: Vocal melody and text only encoded.
!!NB: First instance of melodic material only encoded.
**kern	**silbe
*clef G2	*
*k[b-e-a-d-g-]	*
*M3/4	*
*MM[andantino]	*
!!created: 6/11/03 11:11
!!proofed and posted: 6/11/03 11:31
!!edit time: 19 min.
=4	=4
4r	.
4r	.
{8dd-	{Ces
8ee-	at-
=5	=5
4ff	-traits
8ee-	que
8dd-	cha-
8cc	-cun
8b-	ad-
=6	=6
4a-	-mi-
8dd-}	-re,}
8r	.
{8ee-	{Ce
8cc	re-
=7	=7
8a-	-gard
8dd-	di-
4dd-	-vin,
8a-	ce
8an	sou-
=8	=8
4b-	-ri-
8g-}	-re!}
8r	.
{8dd-	{Nous
8ee-	fai-
=9	=9
2ff	-saient
8ccn	tom-
8ee-	-ber
=10	=10
8dd-	tous,
8ccn	He/-
8b-}	-las!}
8r	.
{8ff	{nous
8gg-	fai-
=11	=11
2aa-	-saient
8ee-	tom-
8gg-	-ber
=12	=12
8ff	tous,
8ee-	He/-
8dd-	-las!
8ccn	Ma-
8b-	-da-
8gg-	-me a\
=13	=13
(4ff	vos
4.ee-)	|
8dd-	ge-
=14	=14
4dd-}	-noux!}
8r	.
{8dd-	{De/-
8ee-	-es-
8ff	-se ou
=15	=15
[4gg-	fem-
8gg-]}	-me,}
{8ff	{An-
8aa-	-ge
8gg-	des
=16	=16
[4b-	cieux!
8b-]}	|}
{8b-	{De/-
8cc	-es-
8dd-	-se ou
=17	=17
[4ee-	fem-
8ee-]}	-me,}
{8ddn	{An-
8ff	-ge
8ee-	des
=18	=18
[4g-	cieux!
8g-]}	|}
{8g-	{Qui
8a-	ne
8b-	s'en-
=19	=19
4cc	-flam-
8b-}	-me}
{8b-	{A
8cc	per-
8dd-	-du
=20	=20
4ee-	l'a^-
8dd-}	-me,}
{8gg-	{A
8b-	per-
8dd-	-du
=21	=21
8e-	l'a^-
8cc	-me Ou
4b-	bien
4a-	les
=22	=22
[4g-	yeux!
8g-]}	|}
4r	.
8r	.
*-	*-
